X: 9149
T: Singing Sisters (with piano acc.)
C: BB
R: jig
Q: 1/8=320
M: 6/8
L: 1/8
V: 1 program 1 73 %flute
V: 2 volume=70 clef=bass m=D program 1 01
K: G
[V:1] A |"G"BdB "Am"AGA | "Em"Bee "C"gfe | "G"BdB "Am"AGA | "G"BGD "Em"E2 A |
[V:2] z|G,,2[GBD]A,,2[ACE]|E,2[EGB]C,2[EGC]|G,,2[GBD]A,,2[ACE]|G,,2[GBD]E,2[EGB]|
%
[V:1] "G"BdB "Am"AGA | "Em"Bde "C"gfg | "D"afd "D7"cAd | "G"BGF "G"G2 :|
[V:2] G,,2[GBD]A,,2[ACE]|E,2[EGB]C,2[EGC]|D,2[AFD]A,,2[AFC]|G,,2[GBD][G,,2B,2D,2]:|
%
[V:1] A |"Em"Bee "C"gfg | "G"bag "D"fed | "Em"Bee "Am"gag | "G"ged "Em"e2 A |
[V:2] z |E,2[EGB]C,2[EGC]|G,,2[GBD]D,2[AFD]|E,2[EGB]A,,2[ACE]|G,,2[GBD]E,2[EGB]|
%
[V:1] "Em"Bee "C"gfg | "G"bag "C"efg | "G"dcB "D7"Adc |"G"BGF "G"G2 :|
[V:2] E,2[EGB]C,2[EGC]|G,,2[GBD]C,2[EGC]|G,,2[GBD]D,2[AFC]|G,,2[GBD][G,,2B,2D,2]:|
%%%%%%%%%%tune repeat
[V:1] A |"G"BdB "Am"AGA | "Em"Bee "C"gfe | "G"BdB "Am"AGA | "G"BGD "Em"E2 A |
[V:2] z|G,,2[GBD]A,,2[ACE]|E,2[EGB]C,2[EGC]|G,,2[GBD]A,,2[ACE]|G,,2[GBD]E,2[EGB]|
%
[V:1] "G"BdB "Am"AGA | "Em"Bde "C"gfg | "D"afd "D7"cAd | "G"BGF "G"G2 :|
[V:2] G,,2[GBD]A,,2[ACE]|E,2[EGB]C,2[EGC]|D,2[AFD]A,,2[AFC]|G,,2[GBD][G,,2B,2D,2]:|
%
[V:1] A |"Em"Bee "C"gfg | "G"bag "D"fed | "Em"Bee "Am"gag | "G"ged "Em"e2 A |
[V:2] z |E,2[EGB]C,2[EGC]|G,,2[GBD]D,2[AFD]|E,2[EGB]A,,2[ACE]|G,,2[GBD]E,2[EGB]|
%
[V:1] "Em"Bee "C"gfg | "G"bag "C"efg | "G"dcB "D7"Adc |1 "G"BGF "G"G2 :|2\
"G"BGF "G"HG3 ||
[V:2] E,2[EGB]C,2[EGC]|G,,2[GBD]C,2[EGC]|G,,2[GBD]D,2[AFC]|1 G,,2[GBD][G,,2B,2D,2]:|2\
G,,2[GBD]H[G,,3B,3D,3]||
%%%%%%%%%%%%%%%%%%%%%%%%%%%%%%%%%%%%%%%%%%%
